src/packages/tokens/img/wbeth.svg

<svg width="200" height="200" viewBox="0 0 200 200" fill="none" xmlns="http://www.w3.org/2000/svg">
<circle cx="100" cy="100" r="100" transform="rotate(90 100 100)" fill="url(#paint0_linear_6129_25416)"/>
<path fill-rule="evenodd" clip-rule="evenodd" d="M33.4156 37.7324C18.0794 54.1193 8.69043 76.141 8.69043 100.356C8.69043 123.418 17.2073 144.492 31.2675 160.602L37.1941 154.675C24.7701 140.121 17.2692 121.237 17.2692 100.601C17.2692 78.6874 25.7273 58.7496 39.557 43.8739L33.4156 37.7324ZM157.329 161.646C142.454 175.476 122.516 183.934 100.603 183.934C78.9675 183.934 59.2581 175.689 44.4448 162.17L38.557 168.058C54.8547 182.943 76.5456 192.022 100.357 192.022C124.572 192.022 146.593 182.633 162.98 167.297L157.329 161.646ZM170.18 159.751L164.512 154.083C176.636 139.61 183.936 120.958 183.936 100.601C183.936 78.9656 175.691 59.2562 162.172 44.4429L168.06 38.5556C182.945 54.8532 192.024 76.5441 192.024 100.356C192.024 123.014 183.802 143.753 170.18 159.751ZM47.1202 36.6914L40.9614 30.5326C56.9596 16.9102 77.6983 8.68896 100.357 8.68896C123.42 8.68896 144.493 17.2059 160.604 31.266L154.677 37.1923C140.123 24.7683 121.239 17.2674 100.603 17.2674C80.2453 17.2674 61.593 24.5669 47.1202 36.6914Z" fill="white"/>
<path d="M99.9013 41.707V84.5775L64.2996 100.747L99.9013 41.707Z" fill="#868686"/>
<path d="M99.9014 84.5762V121.81L64.2997 100.745L99.9014 84.5762Z" fill="#363636"/>
<path d="M99.9014 129.212V158.138L64.2997 108.148L99.9014 129.212Z" fill="#868686"/>
<path d="M99.9006 41.7067V84.5771L135.502 100.746L99.9006 41.7067Z" fill="#312706"/>
<path d="M99.9006 84.5762V121.81L135.502 100.745L99.9006 84.5762Z" fill="#130F03"/>
<path d="M99.9006 129.212V158.138L135.502 108.148L99.9006 129.212Z" fill="#312807"/>
<defs>
<linearGradient id="paint0_linear_6129_25416" x1="100" y1="-7.62939e-06" x2="100" y2="200" gradientUnits="userSpaceOnUse">
<stop stop-color="#F0B90B"/>
<stop offset="1" stop-color="#F8D33A"/>
</linearGradient>
</defs>
</svg>

<svg xmlns="http://www.w3.org/2000/svg" width="200" height="200" fill="none" xmlns:v="https://vecta.io/nano"><circle cx="100" cy="100" r="100" transform="rotate(90 100 100)" fill="url(#A)"/><path fill-rule="evenodd" d="M33.416 37.732C18.079 54.119 8.69 76.141 8.69 100.356a91.31 91.31 0 0 0 22.577 60.246l5.927-5.927c-12.424-14.554-19.925-33.438-19.925-54.074 0-21.914 8.458-41.851 22.288-56.727l-6.141-6.142zm123.913 123.914c-14.875 13.83-34.813 22.288-56.726 22.288-21.635 0-41.345-8.245-56.158-21.764l-5.888 5.888c16.298 14.885 37.989 23.964 61.8 23.964 24.215 0 46.236-9.389 62.623-24.725l-5.651-5.651zm12.851-1.895l-5.668-5.668c12.124-14.473 19.424-33.125 19.424-53.482 0-21.635-8.245-41.345-21.764-56.158l5.888-5.887c14.885 16.298 23.964 37.989 23.964 61.8 0 22.658-8.222 43.397-21.844 59.395zM47.12 36.691l-6.159-6.159a91.3 91.3 0 0 1 59.396-21.844c23.063 0 44.136 8.517 60.247 22.577l-5.927 5.926c-14.554-12.424-33.438-19.925-54.074-19.925-20.358 0-39.01 7.3-53.483 19.424z" fill="#fff"/><path d="M99.901 41.707v42.871L64.3 100.747l35.602-59.04z" fill="#868686"/><path d="M99.901 84.576v37.234L64.3 100.745l35.602-16.169z" fill="#363636"/><path d="M99.901 129.212v28.926L64.3 108.148l35.602 21.064z" fill="#868686"/><path d="M99.901 41.707v42.87l35.601 16.169-35.601-59.039z" fill="#312706"/><path d="M99.901 84.576v37.234l35.601-21.065-35.601-16.169z" fill="#130f03"/><path d="M99.901 129.212v28.926l35.601-49.99-35.601 21.064z" fill="#312807"/><defs><linearGradient id="A" x1="100" y1="0" x2="100" y2="200" gradientUnits="userSpaceOnUse"><stop stop-color="#f0b90b"/><stop offset="1" stop-color="#f8d33a"/></linearGradient></defs></svg>
